!!!OTL: Na Świety Piotr
**kern
*staff1
=--
*clefG2
*k[]
00.r
=-
1g
0a
0cc
1a
=-
1a
0a
0g
2a
2b
=-
2cc
2a
1g
=-
1a
1g
=-
1a
1cc
=-
1dd
1cc
=-
2cc
2cc
2b
2a
=-
1g
1a
!!linebreak:original
=-
1a
1cc
=-
1cc
1dd
=-
2cc
2b
1a
=-
!LO:TX:Y=-34:t=P
1g
1g
=-
1a
1.cc
2cc
1cc
=-
1dd
2dd
2cc
=-
1b
1a
=-
2dd
2cc
1a
=-
2a
2a
0cc
=-
!!linebreak:original
1a
1b
=-
1cc
1b
=-
1cc
2b
2a
=-
1g
1f
=-
1a
1b
=-
1cc
1b
=-
1cc
2dd
2ee
=-
2ff
2dd
2ee
2ff
=-
0ee
=-
0ff
=-=
*-
!!title: @{OTL}, @{GTL}, ed. @{ENC}
!!!pag:
!!!GTL: Hymnbook C
!!!EFL: 
!!!YEM: Creative Commons CC/BY/NC/SA 4.0
!!!ENC: Marcin Konik
!!!END: 2015-0m-dd
!!!EED: Marcin Konik
!!!EEV: 
!!!ONB: Encoded in vim by Marcin Konik
!!!CharacterEncoding: utf-8
!!!RDF**kern: l=long note in original notation
!!!RDF**kern: i=editorial accidental
!!muse2ps: z14jc180F
!!!COM: Anonim
!!!CDT: [?]
!!!TXO: Polish
!!!ODT: 
!!!GTL: Hymnbook C
!!!ARL: Opactwo św. Wojciecha, Staniątki 
!!!voices:	1
